src/img/advantages__like.svg

<svg width="38" height="38" fill="none" xmlns="http://www.w3.org/2000/svg">
  <path d="M34.8464 23.5273C35.3764 22.9358 35.6992 22.155 35.6992 21.3008C35.6992 19.4594 34.2007 17.9609 32.3594 17.9609H25.8771C26.5191 16.0127 26.793 13.4277 26.793 12.3196V11.207C26.793 8.75187 24.795 6.75391 22.3398 6.75391H21.2266C20.7159 6.75391 20.2706 7.10125 20.1467 7.59703L19.5403 10.0232C18.6905 13.421 15.9927 17.1698 13.2005 17.8511C12.7114 16.6131 11.5039 15.7344 10.0938 15.7344H3.41406C2.79953 15.7344 2.30078 16.2331 2.30078 16.8477V36.8867C2.30078 37.5012 2.79953 38 3.41406 38H10.0938C11.4215 38 12.5704 37.2214 13.1085 36.0963L16.9338 37.3714C18.1843 37.7885 19.4876 38 20.8065 38H30.1328C31.9742 38 33.4727 36.5015 33.4727 34.6602C33.4727 34.226 33.3895 33.8104 33.2381 33.4296C34.6542 33.0429 35.6992 31.7448 35.6992 30.207C35.6992 29.3528 35.3764 28.572 34.8464 27.9805C35.3764 27.3889 35.6992 26.6082 35.6992 25.7539C35.6992 24.8996 35.3764 24.1189 34.8464 23.5273ZM11.207 34.6602C11.207 35.2739 10.7075 35.7734 10.0938 35.7734H4.52734V17.9609H10.0938C10.7075 17.9609 11.207 18.4604 11.207 19.0742V34.6602ZM30.1328 24.6406H32.3594C32.9732 24.6406 33.4727 25.1401 33.4727 25.7539C33.4727 26.3677 32.9732 26.8672 32.3594 26.8672H30.1328C29.5183 26.8672 29.0195 27.3659 29.0195 27.9805C29.0195 28.595 29.5183 29.0938 30.1328 29.0938H32.3594C32.9732 29.0938 33.4727 29.5932 33.4727 30.207C33.4727 30.8208 32.9732 31.3203 32.3594 31.3203H30.1328C29.5183 31.3203 29.0195 31.8191 29.0195 32.4336C29.0195 33.0481 29.5183 33.5469 30.1328 33.5469C30.7466 33.5469 31.2461 34.0464 31.2461 34.6602C31.2461 35.2739 30.7466 35.7734 30.1328 35.7734H20.8065C19.7273 35.7734 18.6608 35.6005 17.6373 35.2591L13.4336 33.8579V20.0821C15.18 19.7504 16.8892 18.6445 18.4322 16.8343C19.9389 15.0664 21.1605 12.7226 21.7001 10.5636L22.0957 8.98047H22.3398C23.5674 8.98047 24.5664 9.97945 24.5664 11.207V12.3196C24.5664 13.8143 24.0988 16.6814 23.5006 17.9609H21.2266C20.612 17.9609 20.1133 18.4597 20.1133 19.0742C20.1133 19.6888 20.612 20.1875 21.2266 20.1875H32.3594C32.9732 20.1875 33.4727 20.687 33.4727 21.3008C33.4727 21.9146 32.9732 22.4141 32.3594 22.4141H30.1328C29.5183 22.4141 29.0195 22.9128 29.0195 23.5273C29.0195 24.1419 29.5183 24.6406 30.1328 24.6406Z" fill="#fff"/>
  <path d="M7.86719 33.5469C8.48204 33.5469 8.98047 33.0484 8.98047 32.4336 8.98047 31.8187 8.48204 31.3203 7.86719 31.3203 7.25234 31.3203 6.75391 31.8187 6.75391 32.4336 6.75391 33.0484 7.25234 33.5469 7.86719 33.5469zM23.4531 0C22.8383 0 22.3398.498453 22.3398 1.11328V3.41406C22.3398 4.02889 22.8383 4.52734 23.4531 4.52734 24.068 4.52734 24.5664 4.02889 24.5664 3.41406V1.11328C24.5664.498453 24.068 0 23.4531 0zM18.7298 4.90939L17.1554 3.33499C16.7207 2.90022 16.0157 2.90022 15.581 3.33499 15.1462 3.76976 15.1462 4.47462 15.581 4.90939L17.1554 6.4838C17.5901 6.91849 18.2951 6.91857 18.7298 6.4838 19.1646 6.04902 19.1646 5.34417 18.7298 4.90939zM31.3252 3.33499C30.8905 2.90022 30.1856 2.90022 29.7508 3.33499L28.1764 4.90932C27.7416 5.34409 27.7416 6.04895 28.1764 6.48372 28.6111 6.9185 29.3161 6.91857 29.7508 6.4838L31.3252 4.9094C31.76 4.47462 31.76 3.76977 31.3252 3.33499z" fill="#fff"/>
</svg>

<svg width="38" height="38" fill="none" xmlns="http://www.w3.org/2000/svg"><path d="M34.846 23.527c.53-.591.853-1.372.853-2.226a3.344 3.344 0 00-3.34-3.34h-6.482c.642-1.948.916-4.533.916-5.641v-1.113a4.459 4.459 0 00-4.453-4.453h-1.113c-.511 0-.956.347-1.08.843l-.607 2.426c-.85 3.398-3.547 7.147-6.34 7.828a3.344 3.344 0 00-3.106-2.117h-6.68c-.614 0-1.113.5-1.113 1.114v20.039A1.114 1.114 0 003.414 38h6.68a3.343 3.343 0 003.014-1.904l3.826 1.275a12.22 12.22 0 003.872.629h9.327a3.344 3.344 0 003.105-4.57 3.346 3.346 0 002.461-3.223 3.33 3.33 0 00-.853-2.227 3.327 3.327 0 000-4.453zM11.207 34.66c0 .614-.5 1.113-1.113 1.113H4.527V17.961h5.567c.614 0 1.113.5 1.113 1.113V34.66zm18.926-10.02h2.226a1.115 1.115 0 010 2.227h-2.226a1.114 1.114 0 000 2.227h2.226c.614 0 1.114.5 1.114 1.113 0 .614-.5 1.113-1.114 1.113h-2.226a1.114 1.114 0 000 2.227c.614 0 1.113.5 1.113 1.113 0 .614-.5 1.113-1.113 1.113h-9.326a9.998 9.998 0 01-3.17-.514l-4.203-1.401V20.082c1.746-.332 3.455-1.438 4.998-3.248 1.507-1.768 2.729-4.111 3.268-6.27l.396-1.584h.244a2.23 2.23 0 012.226 2.227v1.113c0 1.494-.467 4.361-1.065 5.64h-2.274a1.114 1.114 0 000 2.227h11.132a1.115 1.115 0 010 2.227h-2.226a1.114 1.114 0 000 2.227z" fill="#fff"/><path d="M7.867 33.547a1.113 1.113 0 100-2.227 1.113 1.113 0 000 2.227zM23.453 0c-.615 0-1.113.498-1.113 1.113v2.301a1.113 1.113 0 002.226 0v-2.3C24.566.497 24.068 0 23.453 0zM18.73 4.91l-1.575-1.575a1.113 1.113 0 10-1.574 1.574l1.574 1.575a1.113 1.113 0 001.575-1.575zm12.595-1.575a1.113 1.113 0 00-1.574 0l-1.575 1.574a1.113 1.113 0 101.575 1.575l1.574-1.575a1.113 1.113 0 000-1.574z" fill="#fff"/></svg>
